X:1
T:Suite No. 2 for Solo Violin
T:Suite No. 2 for Solo Violin
T:in A Major
T:Johann Paul von Westhoff
C:J. P. von Westhoff
%%score ( 1 2 3 4 )
L:1/8
Q:1/4=80
M:4/4
K:D
V:1 treble nm="Violin" snm="Vln."
V:2 treble 
V:3 treble 
V:4 treble 
V:1
"^Allemande" e | e2 e/e/e/e/ Be/f/ Te>d | cB/c/ B2 A2- A/a/T^g/f/ | e2 ea/>=g/ f2 z2 | %4
 B2 Be/>d/ c2 x2 | A2 EA/>=G/ A2 z2 | B(e/f/) (e/d/)(c/B/) c2 z2 | e(a/b/) (a/g/)(f/e/) f2 z2 | %8
 A(d/e/) (d/c/)(B/A/) B(e/f/) (e/d/)(c/B/) | e(f/=g/) (f/e/)(^d/c/) d(b/a/) (^g/f/)(e/f/) | %10
 f2 z2 ef/^g/ aa | ^g(e/f/) g(f/e/) f(e/f/) g(f/e/) | !fermata!f4 f^gf>f | ^g2 z2 g3 :: e | %15
 e2 z2 ede>d | e2 z2 AGA>G | A/d/d/A/ A>A B/e/e/A/ B>B | e/a/a/e/ e>e f/b/b/f/ f>f | %19
 ^g/B/B/A/ B>B c/E/E/D/ E>E | F/D/D/D/ D>D E/A/A/D/ E>E | F/B/B/E/ F>A B/e/e/A/ B>B | %22
 c/f/f/B/ c>e f/b/b/e/ f>f | ^g/e/e/e/ e>e f/B/B/A/ B>B | c/A/A/A/ A>A B/E/E/D/ E>E | %25
 F/A/A/F/ E>E!p! F/A/A/F/ E>E |!f! F/A/A/F/ E>E D/^G/A/B/ TA>G | A2 z2 A3 :| %28
[K:D][M:3/2][Q:1/4=260]"^Courante" e4 | e6 a2 e2 g2 | f2 g2 f2 e2 d2 c2 | B2 c2 B2 A2 ^G2 F2 | %32
 E2 F2 E2 D2 E2 A2 | D2 A2 ^G2 B2 TA2 G2 | A2 E2 F2 A2 ^G2 B2 | e2 e2 c2 e2 ^d2 f2 | e4 e4 e4 | %37
 d4 d4 d4 | d4 d4 d4 | c2 B2 c2 A2 B2 c2 | B2 A2 B4 A2 B2 | c4 E2 F2 E2 F2 | [E^GB]8 :: b4 | %44
 ^g2 f2 g4 g4 | a4 a6 =g2 | f4 A2 B2 A2 B2 | c2 B2 c2 A2 B2 c2 | B2 A2 B4 A2 B2 | A2 B2 c2 B2 A4 | %50
 B2 A2 B2 c2 B2 A2 | B4 B4 B4 | A4 A4 A4 | F2 A2 B2 c2 d2 c2 | B2 c2 B2 A2 e2 d2 | %55
 c2 e2 f2 ^g2 a2 =g2 | f2 A2 B2 c2 TB4 | A2 e2 f2 ^g2 a2 =g2 | f2 A2 B2 c2 TB4 | A4- A4 :| %60
[K:D][M:3/1][Q:1/4=200]"^Sarabande" e4 | [ce]8 A,12 e4 | f8 D12 A4 | e4 f4 Te12 d4 | e8 A,12 a4 | %65
 a8 A,12 a4 | a8 B,12 f4 | ^g8 Tf16 | [^GBe]8 E12 :: e4 | [Be]8 x16 | e4 b4 Ta12 =g4 | [Adf]8 x16 | %73
 e4 f4 Te12 d4 | [ce]8 x16 | e4 a4 T=g12 e4 | [df]8 Te12 d4 | [Ace]8 A,12 :| %78
[K:D][M:6/4][Q:1/4=360]"^Gigue" a4 a2 e4 f2 | Tc4 d2 e4 A2 | e4 e2 B4 c2 | TB4 A2 TB4 D2 | %82
 A4 A2 A4 A2 | A4 ^G2 A6 | e4 e2 B4 c2 | T^G4 A2 B4 E2 | e4 e2 B4 c2 | TB4 A2 B4 E2 | A4 A2 A4 A2 | %89
 A4 A2 A4 A2 | A4 E2 A6 | B4 B2 B6 | b4 b2 f4 ^g2 | T^d4 e2 f4 B2 | b4 b2 f4 ^g2 | %95
 f4 e2"^♯" Tf4 x2 | e4 e2 e4 e2 | Te4 ^d2 e4 e2 | e4 e2 e4 e2 | e4 ^d2 e6 :: b4 a2 ^g4 B2 | %101
 ^g4 f2 e4 x2 | a4 =g2 f4 e2 | f6 f4 e2 | e4 e2 e4 e2 |!p! e4 e2 e4!f! e2 | e4 e2 f4 e2 | %107
 Te4 ^d2 e4 c2 | TB4 A2 e4 e2 | e4 e2 e4 e2 | e4 e2 e4 x2 | x4 x2 A4 A2 | A4 A2 A4 A2 | %113
 A4 A2 A4 A2 | d4 c2 B6 | e4 d2 c4 e2 | a4 =g2 f6 | b4 a2 ^g6 | ^g6 a6 | a4 ^g2 a6 :| %120
V:2
 x | A2 z2 ^G2 z2 | A^G/A/ E>D E2 x2 | cA/>B/ c2 d2- d/c/B/A/ | ^GE/>F/ GE A2- A/F/E/D/ | %5
 CA,/>B,/ CA, D2- D/C/B,/A,/ | E2 z2 A(E/F/) (E/D/)(C/B,/) | A2 z2 d(A/B/) (A/G/)(F/E/) | %8
 F2 z2 ^G2 z2 | c2 z2 F2 z2 | ^d(B/c/) (B/A/)(^G/F/) B2 c^d | e(c/^d/) e(d/c/) d(c/d/) e(d/c/) | %12
 !fermata!^d4 deed | eE^GB e3 :: x | ^G2- G/E/E/F/ B2 B2 | A2- A/A,/A,/B,/ E2 G2 | %17
 D>E F/f/f/F/ G>F ^G/e/e/G/ | A>B c/a/a/c/ d>c ^d/b/b/d/ | e>F ^G/e/e/G/ A>B, C/A/A/C/ | %20
 D>A, B,/G/G/B,/ =C>B, ^C/A/A/C/ | D>C ^D/B/B/F/ G>F ^G/e/e/G/ | A>^G ^A/f/f/c/ d>c ^d/b/b/d/ | %23
 e>B c/a/a/c/ ^d>F ^G/e/e/G/ | A>E F/d/d/F/ ^G>B, C/A/A/C/ | D>D C/A/A/C/ D>D C/A/A/C/ | %26
 D>D C/A/A/C/ B,2 z2 | AA,CE A3 :|[K:D][M:3/2] x4 | c6 A2 c2 e2 | d2 e2 d2 c2 B2 A2 | %31
 ^G2 A2 G2 F2 E2 D2 | C2 D2 C2 B,2 C4 | B,4 B,4- B,4 | A2 x2 x2 x2 x2 x2 | A2 ^G2 A4 F4 | %36
 ^G2 F2 G2 E2 F2 G2 | F2 E2 F2 D2 E2 F2 | ^G2 F2 G2 E2 F2 G2 | A2 ^G2 A2 F2 G2 A2 | %40
 ^G2 F2 G2 E2 F2 G2 | A2 A,2 C2 D2 C2 ^D2 | x8 :: ^d4 | e2 ^d2 e2 B2 e2 =d2 | c2 B2 c2 A2 c4 | %46
 d2 D2 F2 ^G2 F2 G2 | A2 ^G2 A2 F2 G2 A2 | ^G2 F2 G2 E2 F2 G2 | F2 ^G2 A2 G2 F2 E2 | ^D4 D4 D4 | %51
 ^G2 F2 E2 F2 E2 D2 | C2 B,2 C2 A,2 B,2 C2 | D8 F4 | ^G2 A2 G2 F2 E4 | A8 c4 | d2 F2 ^G2 A2 E4 | %57
 A8 c4 | d2 F2 ^G2 A2 E4 | A4- A4 :|[K:D][M:3/1] B4 | x8 x12 c4 | d8 x12 F4 | [^GB]8 x16 | %64
 [Ac]8 x12 B4 | c8 x12 c4 | ^d8 x12 d4 | e4 A4 B12 A4 | x20 :: x4 | ^G4 F4 TE12 D4 | [CEA]8 x16 | %72
 D4 C4 TB,12 A,4 | [^G,EA]8 x16 | A4 F4 TE12 D4 | [CEA]8 x16 | D4 F4 [^GB]16 | x20 :| %78
[K:D][M:6/4] x12 | x12 | c4 c2 ^G4 A2 | E4 F2 ^G4 D2 | C4 C2 D4 C2 | B,4 B,2 A,6 | x12 | x12 | %86
 c4 c2 ^G4 A2 | E4 F2 ^G4 E2 | D4 D2 C4 D2 | A,4 B,2 C4 A,2 | C4 C2 D6 | ^D4 D2 E6 | x12 | x12 | %94
 ^g4 g2 ^d4 e2 | B4 c2 ^d4 A2 | ^G4 G2 A4 G2 | F4 F2 E4 F2 | ^G4 G2 A4 G2 | F4 F2 E6 :: x12 | %101
 e4 d2 c4 A2 | c6 d4 c2 | d4 D2 F4 ^G2 | A4 F2 ^G4 E2 | A4 F2 ^G4 E2 | A4 A2 A4 ^G2 | F6 E4 x2 | %108
 x4 x2 ^G4 A2 | ^G4 F2 G4 E2 | F4 ^G2 A4 F2 | TE4 D2 C4 D2 | C4 B,2 C4 A,2 | B,4 C2 D4 x2 | %114
 F6 ^G4 F2 | B6 A6 | c6 d4 c2 | B6 e4 E2 | d4 E2 c4 D2 | B6 E6 :| %120
V:3
 x | c2 x2 x4 | x4 C2 x2 | x8 | x2 x B x2 z2 | E2 x E F2 x2 | ^G,2 x2 x4 | E2 x2 x4 | D2 x2 x4 | %9
 A2 x2 x4 | x4 ^G2 FF | E2 x2 x4 | x8 | x7 :: x | B2 x2 ^G2 G2 | c2 z2 C2 C2 | F2 x2 x4 | %18
 c2 x2 x4 | x8 | x8 | x8 | x8 | x8 | x8 | x8 | x8 | x7 :|[K:D][M:3/2] x4 | A6 x2 x4 | x12 | x12 | %32
 x12 | x12 | x12 | c2 B2 x8 | x12 | x12 | x12 | x12 | x12 | x12 | x8 :: x4 | x12 | x12 | x12 | %47
 x12 | x12 | x12 | x12 | x12 | x12 | x12 | x8 B4 | x12 | x12 | x12 | x12 | x8 :|[K:D][M:3/1] x4 | %61
 x24 | x24 | x24 | x24 | x24 | x24 | x24 | x20 :: x4 | x24 | x24 | x24 | x24 | x24 | x24 | x24 | %77
 x20 :|[K:D][M:6/4] x12 | x12 | x12 | x12 | E4 E2 F4 E2 | D4 x2 E6 | x12 | x12 | x12 | x12 | %88
 F4 F2 E4 F2 | E4 D2 E4 E2 | E4 x2 F6 | F4 F2 ^G6 | x12 | x12 | x12 | x12 | B4 B2 c4 B2 | %97
 A4 x2 B4 A2 | B4 B2 c4 B2 | A4 x2 B6 :: x12 | x12 | x12 | x6 d4 d2 | c4 A2 B4 B2 | c4 A2 B4 B2 | %106
 c4 c2 ^d4 B2 | A6 B4 x2 | x4 x2 B4 c2 | B4 A2 B4 B2 | A4 B2 c4 x2 | x4 x2 E4 F2 | E4 D2 E4 E2 | %113
 D4 E2 F4 x2 | x12 | E6 x4 x2 | x12 | x12 | x12 | E6 A,6 :| %120
V:4
 x | x8 | x8 | x8 | x8 | x8 | x8 | A,2 x2 x4 | x8 | x8 | x8 | x8 | x8 | x7 :: x | x8 | x8 | x8 | %18
 x8 | x8 | x8 | x8 | x8 | x8 | x8 | x8 | x8 | x7 :|[K:D][M:3/2] x4 | x12 | x12 | x12 | x12 | x12 | %34
 x12 | x12 | x12 | x12 | x12 | x12 | x12 | x12 | x8 :: x4 | x12 | x12 | x12 | x12 | x12 | x12 | %50
 x12 | x12 | x12 | x12 | x12 | x12 | x12 | x12 | x12 | x8 :|[K:D][M:3/1] x4 | x24 | x24 | x24 | %64
 x24 | x24 | x24 | x24 | x20 :: x4 | x24 | x24 | x24 | x24 | x24 | x24 | x24 | x20 :| %78
[K:D][M:6/4] x12 | x12 | x12 | x12 | x12 | x12 | x12 | x12 | x12 | x12 | x12 | x12 | x12 | x12 | %92
 x12 | x12 | x12 | x12 | x12 | x12 | x12 | x12 :: x12 | x12 | x12 | x12 | x12 | x12 | x12 | x12 | %108
 x12 | x12 | x12 | x12 | x12 | x12 | x12 | x12 | x12 | x12 | x12 | x6 c6 :| %120

